assets/images/font-names/roboto-slab.svg

<svg width="80.054" height="11.58"><path d="M59.414 2.263V3.94h-.395V2.446a2.978 2.978 0 00-1.257-1.076 3.791 3.791 0 00-.947-.291q-.429-.076-.917-.076a5.25 5.25 0 00-.925.077q-.815.146-1.371.572a2.501 2.501 0 00-.479.473 1.753 1.753 0 00-.367 1.083 1.891 1.891 0 00.595 1.413 2.368 2.368 0 00.105.096 2.89 2.89 0 00.483.327q.731.405 2.047.742a12.906 12.906 0 011.023.313q.998.355 1.613.803a3.782 3.782 0 01.041.03 2.194 2.194 0 01.89 1.611 3.147 3.147 0 01.015.312 2.484 2.484 0 01-.194.998q-.254.585-.839.998a3.872 3.872 0 01-1.452.617 5.489 5.489 0 01-1.133.112 5.42 5.42 0 01-2.055-.4 3.853 3.853 0 01-1.637-1.248V8.174h.396v1.589q.571.747 1.457 1.084a5.131 5.131 0 001.839.337 5.037 5.037 0 001.003-.094q.749-.153 1.307-.55a2.352 2.352 0 00.543-.525 1.892 1.892 0 00.362-1.145 2.204 2.204 0 00-.131-.774 1.928 1.928 0 00-.605-.83 3.323 3.323 0 00-.5-.33q-.747-.411-2.053-.769-1.604-.432-2.452-.969a3.618 3.618 0 01-.217-.148 2.034 2.034 0 01-.821-1.431 3.027 3.027 0 01-.025-.396 2.29 2.29 0 01.234-1.043q.225-.449.668-.792a2.986 2.986 0 01.094-.07q.996-.71 2.541-.71a5.892 5.892 0 011.043.088 4.345 4.345 0 011.056.326 3.24 3.24 0 011.417 1.241zM1.194.769h3.032a6.275 6.275 0 01.977.071q.523.083.944.261a2.835 2.835 0 01.672.397 2.356 2.356 0 01.844 1.432 3.589 3.589 0 01.064.695q0 .901-.575 1.637a2.588 2.588 0 01-1.343.898 3.327 3.327 0 01-.228.058q.775.134 1.254.47a1.801 1.801 0 01.394.373A2.319 2.319 0 017.656 8a3.332 3.332 0 01.071.708v1.077a2.946 2.946 0 00.017.329q.04.353.172.567a.811.811 0 00.027.042.702.702 0 00.513.3 1.049 1.049 0 00.128.007h.374v.396h-.374a1.63 1.63 0 01-.365-.038q-.422-.097-.616-.442a2.004 2.004 0 01-.212-.571q-.052-.244-.059-.524a3.477 3.477 0 010-.08V8.723a2.531 2.531 0 00-.103-.739 1.933 1.933 0 00-.641-.953 2.445 2.445 0 00-.82-.431q-.349-.11-.769-.152a5.425 5.425 0 00-.531-.025H1.589v4.615h1.194v.395H0v-.395h1.194V1.165H0V.769h1.194zm71.14 10.657h-1.296a31.858 31.858 0 01-.044-.244q-.037-.213-.061-.369a7.025 7.025 0 01-.024-.167 4.136 4.136 0 01-.028-.341 5.073 5.073 0 01-.005-.22v-.117a3.337 3.337 0 01-.971.979 4.081 4.081 0 01-.299.182 3.559 3.559 0 01-1.134.387 4.722 4.722 0 01-.789.064q-.971 0-1.578-.466a1.992 1.992 0 01-.154-.131 1.987 1.987 0 01-.621-1.299 2.729 2.729 0 01-.013-.265 1.966 1.966 0 01.694-1.523 2.858 2.858 0 01.281-.22 3.491 3.491 0 011.059-.484q.47-.131 1.029-.171a7.222 7.222 0 01.526-.019h1.97V5.845a2.474 2.474 0 00-.081-.655 1.771 1.771 0 00-.552-.887 2.088 2.088 0 00-.784-.421q-.438-.132-1-.132a4.739 4.739 0 00-1.012.105 4.178 4.178 0 00-.397.107 3.845 3.845 0 00-.642.272 3.068 3.068 0 00-.475.314l-.008 1.267h-.395l.007-1.508q.564-.418 1.329-.685a4.796 4.796 0 011.593-.268q1.109 0 1.835.488a2.459 2.459 0 01.209.157 2.087 2.087 0 01.707 1.218 3.175 3.175 0 01.062.642v3.97a7.144 7.144 0 00.026.608 5.338 5.338 0 00.084.593h.952v.396zm-47.197-3.97v.154q0 1.36-.437 2.3a3.448 3.448 0 01-.354.6q-.791 1.07-2.183 1.07a3.902 3.902 0 01-.817-.082 2.946 2.946 0 01-.82-.303 2.828 2.828 0 01-1.08-1.036l-.051 1.267h-.33V.396h-1.194V0h1.589v4.944a3.081 3.081 0 01.827-.994 2.999 2.999 0 01.243-.171 2.717 2.717 0 011.001-.374 3.652 3.652 0 01.617-.051q1.399 0 2.194 1.11a3.922 3.922 0 01.577 1.233q.15.532.196 1.164a8.065 8.065 0 01.022.595zm54.917 0v.154q0 1.36-.437 2.3a3.448 3.448 0 01-.354.6q-.791 1.07-2.183 1.07a3.902 3.902 0 01-.817-.082 2.946 2.946 0 01-.82-.303 2.828 2.828 0 01-1.08-1.036l-.051 1.267h-.33V.396h-1.194V0h1.589v4.944a3.081 3.081 0 01.827-.994 2.999 2.999 0 01.243-.171 2.717 2.717 0 011.001-.374 3.652 3.652 0 01.617-.051q1.399 0 2.194 1.11a3.922 3.922 0 01.577 1.233q.15.532.196 1.164a8.065 8.065 0 01.022.595zM36.299 1.362h.403v2.139h1.948v.403h-1.948v5.478a4.549 4.549 0 00.023.478q.051.482.214.773a1.029 1.029 0 00.092.137q.33.414.872.414.234 0 .417-.015a8.199 8.199 0 00.101-.008l.261-.027a29.36 29.36 0 00.144-.016l.073.359a2.761 2.761 0 01-.451.081q-.215.02-.485.021a7.656 7.656 0 01-.038.001 1.949 1.949 0 01-.493-.059 1.318 1.318 0 01-.719-.461q-.414-.52-.414-1.678V3.904h-1.465v-.403h1.465V1.362zM62.095.396h-1.194V0h1.589v11.03h1.194v.396h-2.783v-.396h1.194V.396zM10.232 7.617V7.31a5.17 5.17 0 01.147-1.265 3.779 3.779 0 01.816-1.585 3.124 3.124 0 012.264-1.099 4.099 4.099 0 01.237-.007 3.509 3.509 0 011.241.212 3.117 3.117 0 011.268.894 3.846 3.846 0 01.877 1.865 5.401 5.401 0 01.086.985v.307a5.204 5.204 0 01-.147 1.269 3.778 3.778 0 01-.816 1.588 3.118 3.118 0 01-2.258 1.099 4.062 4.062 0 01-.236.007 3.505 3.505 0 01-1.262-.22 3.134 3.134 0 01-1.25-.886 3.837 3.837 0 01-.877-1.85 5.403 5.403 0 01-.09-1.007zm16.428 0V7.31a5.17 5.17 0 01.147-1.265 3.779 3.779 0 01.816-1.585 3.124 3.124 0 012.265-1.099 4.099 4.099 0 01.237-.007 3.509 3.509 0 011.24.212 3.117 3.117 0 011.268.894 3.846 3.846 0 01.877 1.865 5.401 5.401 0 01.086.985v.307a5.204 5.204 0 01-.147 1.269 3.778 3.778 0 01-.816 1.588 3.118 3.118 0 01-2.258 1.099 4.062 4.062 0 01-.236.007 3.505 3.505 0 01-1.261-.22 3.134 3.134 0 01-1.251-.886 3.837 3.837 0 01-.877-1.85 5.403 5.403 0 01-.09-1.007zm13.579 0V7.31a5.17 5.17 0 01.147-1.265 3.779 3.779 0 01.816-1.585 3.124 3.124 0 012.265-1.099 4.099 4.099 0 01.237-.007 3.509 3.509 0 011.24.212 3.117 3.117 0 011.268.894 3.846 3.846 0 01.877 1.865 5.401 5.401 0 01.086.985v.307a5.204 5.204 0 01-.147 1.269 3.778 3.778 0 01-.816 1.588 3.118 3.118 0 01-2.258 1.099 4.062 4.062 0 01-.236.007 3.505 3.505 0 01-1.261-.22 3.134 3.134 0 01-1.251-.886 3.837 3.837 0 01-.877-1.85 5.403 5.403 0 01-.09-1.007zM10.627 7.31v.307a4.437 4.437 0 00.178 1.28 3.642 3.642 0 00.657 1.251 2.69 2.69 0 001.968 1.025 3.63 3.63 0 00.281.011 3.009 3.009 0 001.075-.185 2.685 2.685 0 001.151-.855 3.778 3.778 0 00.811-2.029 4.916 4.916 0 00.024-.498V7.31a4.217 4.217 0 00-.223-1.395 3.73 3.73 0 00-.619-1.114 2.685 2.685 0 00-1.957-1.04 3.477 3.477 0 00-.277-.011 3.004 3.004 0 00-1.08.187 2.684 2.684 0 00-1.154.864 3.838 3.838 0 00-.825 2.195 4.868 4.868 0 00-.01.314zm16.429 0v.307a4.437 4.437 0 00.177 1.28 3.642 3.642 0 00.658 1.251 2.69 2.69 0 001.967 1.025 3.63 3.63 0 00.281.011 3.009 3.009 0 001.075-.185 2.685 2.685 0 001.152-.855 3.778 3.778 0 00.81-2.029 4.916 4.916 0 00.025-.498V7.31a4.217 4.217 0 00-.224-1.395 3.73 3.73 0 00-.619-1.114 2.685 2.685 0 00-1.956-1.04 3.477 3.477 0 00-.277-.011 3.004 3.004 0 00-1.08.187 2.684 2.684 0 00-1.154.864 3.838 3.838 0 00-.825 2.195 4.868 4.868 0 00-.01.314zm13.579 0v.307a4.437 4.437 0 00.177 1.28 3.642 3.642 0 00.658 1.251 2.69 2.69 0 001.967 1.025 3.63 3.63 0 00.281.011 3.009 3.009 0 001.075-.185 2.685 2.685 0 001.152-.855 3.778 3.778 0 00.81-2.029 4.916 4.916 0 00.025-.498V7.31a4.217 4.217 0 00-.224-1.395 3.73 3.73 0 00-.619-1.114 2.685 2.685 0 00-1.956-1.04 3.477 3.477 0 00-.277-.011 3.004 3.004 0 00-1.08.187 2.684 2.684 0 00-1.154.864 3.838 3.838 0 00-.825 2.195 4.868 4.868 0 00-.01.314zm-15.908.3v-.154a6.745 6.745 0 00-.086-1.104q-.151-.914-.574-1.573a2.246 2.246 0 00-.683-.699q-.438-.278-1.011-.322a2.868 2.868 0 00-.217-.008 3.652 3.652 0 00-.703.063q-.414.082-.736.267a1.929 1.929 0 00-.352.26 3.296 3.296 0 00-.905 1.446v3.633q.286.806.971 1.285.685.48 1.739.48 1.253 0 1.905-.967a3.48 3.48 0 00.457-1.014q.128-.457.172-1a7.355 7.355 0 00.023-.593zm54.917 0v-.154a6.745 6.745 0 00-.086-1.104q-.151-.914-.574-1.573a2.246 2.246 0 00-.683-.699q-.438-.278-1.011-.322a2.868 2.868 0 00-.217-.008 3.652 3.652 0 00-.703.063q-.414.082-.736.267a1.929 1.929 0 00-.352.26 3.296 3.296 0 00-.905 1.446v3.633q.286.806.971 1.285.685.48 1.739.48 1.253 0 1.905-.967a3.48 3.48 0 00.457-1.014q.128-.457.172-1a7.355 7.355 0 00.023-.593zM1.589 1.165v4.863h2.564a6.149 6.149 0 00.872-.058q.984-.141 1.534-.631a2.281 2.281 0 00.603-.826 2.28 2.28 0 00.17-.888 2.912 2.912 0 00-.093-.754 2.018 2.018 0 00-.687-1.073q-.781-.633-2.326-.633H1.589zm69.287 8.122V7.405h-1.948a6.104 6.104 0 00-.933.067q-.826.128-1.403.5a2.253 2.253 0 00-.48.407 1.576 1.576 0 00-.399 1.069 1.618 1.618 0 00.492 1.194 1.966 1.966 0 00.05.048 1.842 1.842 0 00.908.452 2.634 2.634 0 00.52.049 4.201 4.201 0 00.986-.111 3.329 3.329 0 00.962-.394q.828-.505 1.245-1.399z" vector-effect="non-scaling-stroke" stroke-linecap="round" fill-rule="evenodd" font-size="12" stroke="#000" stroke-width=".25mm" fill="none"/></svg>

<svg width="80.054" height="11.58" viewBox="0 0 80.054 11.58"><title>Roboto Slab</title><g id="svgGroup" stroke-linecap="round" fill-rule="evenodd" font-size="9pt" stroke="#000" stroke-width="0.25mm" fill="none" style="stroke:#000;stroke-width:0.25mm;fill:none"><path d="M 59.414 2.263 L 59.414 3.94 L 59.019 3.94 L 59.019 2.446 A 2.978 2.978 0 0 0 57.762 1.37 A 3.791 3.791 0 0 0 56.815 1.079 Q 56.386 1.003 55.898 1.003 A 5.25 5.25 0 0 0 54.973 1.08 Q 54.158 1.226 53.602 1.652 A 2.501 2.501 0 0 0 53.123 2.125 A 1.753 1.753 0 0 0 52.756 3.208 A 1.891 1.891 0 0 0 53.351 4.621 A 2.368 2.368 0 0 0 53.456 4.717 A 2.89 2.89 0 0 0 53.939 5.044 Q 54.67 5.449 55.986 5.786 A 12.906 12.906 0 0 1 57.009 6.099 Q 58.007 6.454 58.622 6.902 A 3.782 3.782 0 0 1 58.663 6.932 A 2.194 2.194 0 0 1 59.553 8.543 A 3.147 3.147 0 0 1 59.568 8.855 A 2.484 2.484 0 0 1 59.374 9.853 Q 59.12 10.438 58.535 10.851 A 3.872 3.872 0 0 1 57.083 11.468 A 5.489 5.489 0 0 1 55.95 11.58 A 5.42 5.42 0 0 1 53.895 11.18 A 3.853 3.853 0 0 1 52.258 9.932 L 52.258 8.174 L 52.654 8.174 L 52.654 9.763 Q 53.225 10.51 54.111 10.847 A 5.131 5.131 0 0 0 55.95 11.184 A 5.037 5.037 0 0 0 56.953 11.09 Q 57.702 10.937 58.26 10.54 A 2.352 2.352 0 0 0 58.803 10.015 A 1.892 1.892 0 0 0 59.165 8.87 A 2.204 2.204 0 0 0 59.034 8.096 A 1.928 1.928 0 0 0 58.429 7.266 A 3.323 3.323 0 0 0 57.929 6.936 Q 57.182 6.525 55.876 6.167 Q 54.272 5.735 53.424 5.198 A 3.618 3.618 0 0 1 53.207 5.05 A 2.034 2.034 0 0 1 52.386 3.619 A 3.027 3.027 0 0 1 52.361 3.223 A 2.29 2.29 0 0 1 52.595 2.18 Q 52.82 1.731 53.263 1.388 A 2.986 2.986 0 0 1 53.357 1.318 Q 54.353 0.608 55.898 0.608 A 5.892 5.892 0 0 1 56.941 0.696 A 4.345 4.345 0 0 1 57.997 1.022 A 3.24 3.24 0 0 1 59.414 2.263 Z M 1.194 0.769 L 4.226 0.769 A 6.275 6.275 0 0 1 5.203 0.84 Q 5.726 0.923 6.147 1.101 A 2.835 2.835 0 0 1 6.819 1.498 A 2.356 2.356 0 0 1 7.663 2.93 A 3.589 3.589 0 0 1 7.727 3.625 Q 7.727 4.526 7.152 5.262 A 2.588 2.588 0 0 1 5.809 6.16 A 3.327 3.327 0 0 1 5.581 6.218 Q 6.356 6.352 6.835 6.688 A 1.801 1.801 0 0 1 7.229 7.061 A 2.319 2.319 0 0 1 7.656 8 A 3.332 3.332 0 0 1 7.727 8.708 L 7.727 9.785 A 2.946 2.946 0 0 0 7.744 10.114 Q 7.784 10.467 7.916 10.681 A 0.811 0.811 0 0 0 7.943 10.723 A 0.702 0.702 0 0 0 8.456 11.023 A 1.049 1.049 0 0 0 8.584 11.03 L 8.958 11.03 L 8.958 11.426 L 8.584 11.426 A 1.63 1.63 0 0 1 8.219 11.388 Q 7.797 11.291 7.603 10.946 A 2.004 2.004 0 0 1 7.391 10.375 Q 7.339 10.131 7.332 9.851 A 3.477 3.477 0 0 1 7.332 9.771 L 7.332 8.723 A 2.531 2.531 0 0 0 7.229 7.984 A 1.933 1.933 0 0 0 6.588 7.031 A 2.445 2.445 0 0 0 5.768 6.6 Q 5.419 6.49 4.999 6.448 A 5.425 5.425 0 0 0 4.468 6.423 L 1.589 6.423 L 1.589 11.038 L 2.783 11.038 L 2.783 11.433 L 0 11.433 L 0 11.038 L 1.194 11.038 L 1.194 1.165 L 0 1.165 L 0 0.769 L 1.194 0.769 Z M 72.334 11.426 L 71.038 11.426 A 31.858 31.858 0 0 1 70.994 11.182 Q 70.957 10.969 70.933 10.813 A 7.025 7.025 0 0 1 70.909 10.646 A 4.136 4.136 0 0 1 70.881 10.305 A 5.073 5.073 0 0 1 70.876 10.085 L 70.876 9.968 A 3.337 3.337 0 0 1 69.905 10.947 A 4.081 4.081 0 0 1 69.606 11.129 A 3.559 3.559 0 0 1 68.472 11.516 A 4.722 4.722 0 0 1 67.683 11.58 Q 66.712 11.58 66.105 11.114 A 1.992 1.992 0 0 1 65.951 10.983 A 1.987 1.987 0 0 1 65.33 9.684 A 2.729 2.729 0 0 1 65.317 9.419 A 1.966 1.966 0 0 1 66.011 7.896 A 2.858 2.858 0 0 1 66.292 7.676 A 3.491 3.491 0 0 1 67.351 7.192 Q 67.821 7.061 68.38 7.021 A 7.222 7.222 0 0 1 68.906 7.002 L 70.876 7.002 L 70.876 5.845 A 2.474 2.474 0 0 0 70.795 5.19 A 1.771 1.771 0 0 0 70.243 4.303 A 2.088 2.088 0 0 0 69.459 3.882 Q 69.021 3.75 68.459 3.75 A 4.739 4.739 0 0 0 67.447 3.855 A 4.178 4.178 0 0 0 67.05 3.962 A 3.845 3.845 0 0 0 66.408 4.234 A 3.068 3.068 0 0 0 65.933 4.548 L 65.925 5.815 L 65.53 5.815 L 65.537 4.307 Q 66.101 3.889 66.866 3.622 A 4.796 4.796 0 0 1 68.459 3.354 Q 69.568 3.354 70.294 3.842 A 2.459 2.459 0 0 1 70.503 3.999 A 2.087 2.087 0 0 1 71.21 5.217 A 3.175 3.175 0 0 1 71.272 5.859 L 71.272 9.829 A 7.144 7.144 0 0 0 71.298 10.437 A 5.338 5.338 0 0 0 71.382 11.03 L 72.334 11.03 L 72.334 11.426 Z M 25.137 7.456 L 25.137 7.61 Q 25.137 8.97 24.7 9.91 A 3.448 3.448 0 0 1 24.346 10.51 Q 23.555 11.58 22.163 11.58 A 3.902 3.902 0 0 1 21.346 11.498 A 2.946 2.946 0 0 1 20.526 11.195 A 2.828 2.828 0 0 1 19.446 10.159 L 19.395 11.426 L 19.065 11.426 L 19.065 0.396 L 17.871 0.396 L 17.871 0 L 19.46 0 L 19.46 4.944 A 3.081 3.081 0 0 1 20.287 3.95 A 2.999 2.999 0 0 1 20.53 3.779 A 2.717 2.717 0 0 1 21.531 3.405 A 3.652 3.652 0 0 1 22.148 3.354 Q 23.547 3.354 24.342 4.464 A 3.922 3.922 0 0 1 24.919 5.697 Q 25.069 6.229 25.115 6.861 A 8.065 8.065 0 0 1 25.137 7.456 Z M 80.054 7.456 L 80.054 7.61 Q 80.054 8.97 79.617 9.91 A 3.448 3.448 0 0 1 79.263 10.51 Q 78.472 11.58 77.08 11.58 A 3.902 3.902 0 0 1 76.263 11.498 A 2.946 2.946 0 0 1 75.443 11.195 A 2.828 2.828 0 0 1 74.363 10.159 L 74.312 11.426 L 73.982 11.426 L 73.982 0.396 L 72.788 0.396 L 72.788 0 L 74.377 0 L 74.377 4.944 A 3.081 3.081 0 0 1 75.204 3.95 A 2.999 2.999 0 0 1 75.447 3.779 A 2.717 2.717 0 0 1 76.448 3.405 A 3.652 3.652 0 0 1 77.065 3.354 Q 78.464 3.354 79.259 4.464 A 3.922 3.922 0 0 1 79.836 5.697 Q 79.986 6.229 80.032 6.861 A 8.065 8.065 0 0 1 80.054 7.456 Z M 36.299 1.362 L 36.702 1.362 L 36.702 3.501 L 38.65 3.501 L 38.65 3.904 L 36.702 3.904 L 36.702 9.382 A 4.549 4.549 0 0 0 36.725 9.86 Q 36.776 10.342 36.939 10.633 A 1.029 1.029 0 0 0 37.031 10.77 Q 37.361 11.184 37.903 11.184 Q 38.137 11.184 38.32 11.169 A 8.199 8.199 0 0 0 38.421 11.161 Q 38.533 11.15 38.682 11.134 A 29.36 29.36 0 0 0 38.826 11.118 L 38.899 11.477 A 2.761 2.761 0 0 1 38.448 11.558 Q 38.233 11.578 37.963 11.579 A 7.656 7.656 0 0 1 37.925 11.58 A 1.949 1.949 0 0 1 37.432 11.521 A 1.318 1.318 0 0 1 36.713 11.06 Q 36.299 10.54 36.299 9.382 L 36.299 3.904 L 34.834 3.904 L 34.834 3.501 L 36.299 3.501 L 36.299 1.362 Z M 62.095 0.396 L 60.901 0.396 L 60.901 0 L 62.49 0 L 62.49 11.03 L 63.684 11.03 L 63.684 11.426 L 60.901 11.426 L 60.901 11.03 L 62.095 11.03 L 62.095 0.396 Z M 10.232 7.617 L 10.232 7.31 A 5.17 5.17 0 0 1 10.379 6.045 A 3.779 3.779 0 0 1 11.195 4.46 A 3.124 3.124 0 0 1 13.459 3.361 A 4.099 4.099 0 0 1 13.696 3.354 A 3.509 3.509 0 0 1 14.937 3.566 A 3.117 3.117 0 0 1 16.205 4.46 A 3.846 3.846 0 0 1 17.082 6.325 A 5.401 5.401 0 0 1 17.168 7.31 L 17.168 7.617 A 5.204 5.204 0 0 1 17.021 8.886 A 3.778 3.778 0 0 1 16.205 10.474 A 3.118 3.118 0 0 1 13.947 11.573 A 4.062 4.062 0 0 1 13.711 11.58 A 3.505 3.505 0 0 1 12.449 11.36 A 3.134 3.134 0 0 1 11.199 10.474 A 3.837 3.837 0 0 1 10.322 8.624 A 5.403 5.403 0 0 1 10.232 7.617 Z M 26.66 7.617 L 26.66 7.31 A 5.17 5.17 0 0 1 26.807 6.045 A 3.779 3.779 0 0 1 27.623 4.46 A 3.124 3.124 0 0 1 29.888 3.361 A 4.099 4.099 0 0 1 30.125 3.354 A 3.509 3.509 0 0 1 31.365 3.566 A 3.117 3.117 0 0 1 32.633 4.46 A 3.846 3.846 0 0 1 33.51 6.325 A 5.401 5.401 0 0 1 33.596 7.31 L 33.596 7.617 A 5.204 5.204 0 0 1 33.449 8.886 A 3.778 3.778 0 0 1 32.633 10.474 A 3.118 3.118 0 0 1 30.375 11.573 A 4.062 4.062 0 0 1 30.139 11.58 A 3.505 3.505 0 0 1 28.878 11.36 A 3.134 3.134 0 0 1 27.627 10.474 A 3.837 3.837 0 0 1 26.75 8.624 A 5.403 5.403 0 0 1 26.66 7.617 Z M 40.239 7.617 L 40.239 7.31 A 5.17 5.17 0 0 1 40.386 6.045 A 3.779 3.779 0 0 1 41.202 4.46 A 3.124 3.124 0 0 1 43.467 3.361 A 4.099 4.099 0 0 1 43.704 3.354 A 3.509 3.509 0 0 1 44.944 3.566 A 3.117 3.117 0 0 1 46.212 4.46 A 3.846 3.846 0 0 1 47.089 6.325 A 5.401 5.401 0 0 1 47.175 7.31 L 47.175 7.617 A 5.204 5.204 0 0 1 47.028 8.886 A 3.778 3.778 0 0 1 46.212 10.474 A 3.118 3.118 0 0 1 43.954 11.573 A 4.062 4.062 0 0 1 43.718 11.58 A 3.505 3.505 0 0 1 42.457 11.36 A 3.134 3.134 0 0 1 41.206 10.474 A 3.837 3.837 0 0 1 40.329 8.624 A 5.403 5.403 0 0 1 40.239 7.617 Z M 10.627 7.31 L 10.627 7.617 A 4.437 4.437 0 0 0 10.805 8.897 A 3.642 3.642 0 0 0 11.462 10.148 A 2.69 2.69 0 0 0 13.43 11.173 A 3.63 3.63 0 0 0 13.711 11.184 A 3.009 3.009 0 0 0 14.786 10.999 A 2.685 2.685 0 0 0 15.937 10.144 A 3.778 3.778 0 0 0 16.748 8.115 A 4.916 4.916 0 0 0 16.772 7.617 L 16.772 7.31 A 4.217 4.217 0 0 0 16.549 5.915 A 3.73 3.73 0 0 0 15.93 4.801 A 2.685 2.685 0 0 0 13.973 3.761 A 3.477 3.477 0 0 0 13.696 3.75 A 3.004 3.004 0 0 0 12.616 3.937 A 2.684 2.684 0 0 0 11.462 4.801 A 3.838 3.838 0 0 0 10.637 6.996 A 4.868 4.868 0 0 0 10.627 7.31 Z M 27.056 7.31 L 27.056 7.617 A 4.437 4.437 0 0 0 27.233 8.897 A 3.642 3.642 0 0 0 27.891 10.148 A 2.69 2.69 0 0 0 29.858 11.173 A 3.63 3.63 0 0 0 30.139 11.184 A 3.009 3.009 0 0 0 31.214 10.999 A 2.685 2.685 0 0 0 32.366 10.144 A 3.778 3.778 0 0 0 33.176 8.115 A 4.916 4.916 0 0 0 33.201 7.617 L 33.201 7.31 A 4.217 4.217 0 0 0 32.977 5.915 A 3.73 3.73 0 0 0 32.358 4.801 A 2.685 2.685 0 0 0 30.402 3.761 A 3.477 3.477 0 0 0 30.125 3.75 A 3.004 3.004 0 0 0 29.045 3.937 A 2.684 2.684 0 0 0 27.891 4.801 A 3.838 3.838 0 0 0 27.066 6.996 A 4.868 4.868 0 0 0 27.056 7.31 Z M 40.635 7.31 L 40.635 7.617 A 4.437 4.437 0 0 0 40.812 8.897 A 3.642 3.642 0 0 0 41.47 10.148 A 2.69 2.69 0 0 0 43.437 11.173 A 3.63 3.63 0 0 0 43.718 11.184 A 3.009 3.009 0 0 0 44.793 10.999 A 2.685 2.685 0 0 0 45.945 10.144 A 3.778 3.778 0 0 0 46.755 8.115 A 4.916 4.916 0 0 0 46.78 7.617 L 46.78 7.31 A 4.217 4.217 0 0 0 46.556 5.915 A 3.73 3.73 0 0 0 45.937 4.801 A 2.685 2.685 0 0 0 43.981 3.761 A 3.477 3.477 0 0 0 43.704 3.75 A 3.004 3.004 0 0 0 42.624 3.937 A 2.684 2.684 0 0 0 41.47 4.801 A 3.838 3.838 0 0 0 40.645 6.996 A 4.868 4.868 0 0 0 40.635 7.31 Z M 24.727 7.61 L 24.727 7.456 A 6.745 6.745 0 0 0 24.641 6.352 Q 24.49 5.438 24.067 4.779 A 2.246 2.246 0 0 0 23.384 4.08 Q 22.946 3.802 22.373 3.758 A 2.868 2.868 0 0 0 22.156 3.75 A 3.652 3.652 0 0 0 21.453 3.813 Q 21.039 3.895 20.717 4.08 A 1.929 1.929 0 0 0 20.365 4.34 A 3.296 3.296 0 0 0 19.46 5.786 L 19.46 9.419 Q 19.746 10.225 20.431 10.704 Q 21.116 11.184 22.17 11.184 Q 23.423 11.184 24.075 10.217 A 3.48 3.48 0 0 0 24.532 9.203 Q 24.66 8.746 24.704 8.203 A 7.355 7.355 0 0 0 24.727 7.61 Z M 79.644 7.61 L 79.644 7.456 A 6.745 6.745 0 0 0 79.558 6.352 Q 79.407 5.438 78.984 4.779 A 2.246 2.246 0 0 0 78.301 4.08 Q 77.863 3.802 77.29 3.758 A 2.868 2.868 0 0 0 77.073 3.75 A 3.652 3.652 0 0 0 76.37 3.813 Q 75.956 3.895 75.634 4.08 A 1.929 1.929 0 0 0 75.282 4.34 A 3.296 3.296 0 0 0 74.377 5.786 L 74.377 9.419 Q 74.663 10.225 75.348 10.704 Q 76.033 11.184 77.087 11.184 Q 78.34 11.184 78.992 10.217 A 3.48 3.48 0 0 0 79.449 9.203 Q 79.577 8.746 79.621 8.203 A 7.355 7.355 0 0 0 79.644 7.61 Z M 1.589 1.165 L 1.589 6.028 L 4.153 6.028 A 6.149 6.149 0 0 0 5.025 5.97 Q 6.009 5.829 6.559 5.339 A 2.281 2.281 0 0 0 7.162 4.513 A 2.28 2.28 0 0 0 7.332 3.625 A 2.912 2.912 0 0 0 7.239 2.871 A 2.018 2.018 0 0 0 6.552 1.798 Q 5.771 1.165 4.226 1.165 L 1.589 1.165 Z M 70.876 9.287 L 70.876 7.405 L 68.928 7.405 A 6.104 6.104 0 0 0 67.995 7.472 Q 67.169 7.6 66.592 7.972 A 2.253 2.253 0 0 0 66.112 8.379 A 1.576 1.576 0 0 0 65.713 9.448 A 1.618 1.618 0 0 0 66.205 10.642 A 1.966 1.966 0 0 0 66.255 10.69 A 1.842 1.842 0 0 0 67.163 11.142 A 2.634 2.634 0 0 0 67.683 11.191 A 4.201 4.201 0 0 0 68.669 11.08 A 3.329 3.329 0 0 0 69.631 10.686 Q 70.459 10.181 70.876 9.287 Z" vector-effect="non-scaling-stroke"/></g></svg>
